X: 7542
T:Orton Hornpipe
M:4/4
O:England
A:North-West
R:Hornpipe
K:C
ed| \
cGEG c2c2| ecge c2de| f2ag fedc| BcdB G2ed|\
cGEG c2c2| ecge c2de| fagf edcB| d2c2 c2::\
ef|\
g^fge c2de| f2af d2de| f2ag fedc| (3Bcd (3cBA G2ef|\
g^fge c2de| f2af d2ef| gece fdBd| c2e2 c2:|
